!!!OTL: Veni creator spiritus
**kern
*staff1
=--
*clefC1
*k[]
*met(c)
*M4/4
1d
1d
1d
1c
=-
2c
2d
1c
1d
1d
=-
1e
1d
2e
2e
2d
2d
=-
1e
1d
1d
1r
!!linebreak:original
=-
2d
2d
1d
2e
2f
1e
=-
1f
1d
1d
1d
=-
1c
1d
1d
1d
=-
0d
0d
=-=
*-
!!title: @{OTL}, @{GTL}, ed. @{ENC}
!!!pag:
!!!GTL: Hymnbook C
!!!EFL: 
!!!YEM: Creative Commons CC/BY/NC/SA 4.0
!!!ENC: Marcin Konik
!!!END: 2015-0m-dd
!!!EED: Marcin Konik
!!!EEV: 
!!!ONB: Encoded in vim by Marcin Konik
!!!CharacterEncoding: utf-8
!!!RDF**kern: l=long note in original notation
!!!RDF**kern: i=editorial accidental
!!muse2ps: z14jc180F
!!!COM: Anonim
!!!CDT: [?]
!!!TXO: Polish
!!!ODT: 
!!!GTL: Hymnbook C
!!!ARL: Opactwo św. Wojciecha, Staniątki 
!!!voices:	1
